X: 24823
T: Maggie Pickins
R: strathspey
M: 4/4
K: Amajor
AFEF AB c2|(3dcB cABA F2|AFEF ABcd|ecBc A3z|
AFEF ABc2|(3dcB cABA F2|AFEF ABcd|ecBc A3||
ceae fe a2|cdBc AB c2|ceae feaf|ecBc A3z|
ceae fe a2|cdBc AB c2|ceae feaf|ecBc A3z||

